!!!AGN: Motet
!!!SCT: Sherr (1989)
!!!voices: 5
!!!COM: Jachet of Mantua
!!!OTL: Ave mater matris Dei (BolC Q19)
**kern	**kern	**kern	**kern	**kern
*part5	*part4	*part3	*part2	*part1
*staff5	*staff4	*staff3	*staff2	*staff1
*I"Bassus II	*I"Bassus I	*I"Tenor	*I"Altus	*I"Superius
*I'B. II	*I'B. I	*I'T	*I'A	*I'S
*clefF4	*clefF4	*clefGv2	*clefGv2	*clefGv2
*k[]	*k[]	*k[]	*k[]	*k[]
*C:	*C:	*C:	*C:	*C:
*M2/1	*M2/1	*M2/1	*M2/1	*M2/1
*met(C|)	*met(C|)	*met(C|)	*met(C|)	*met(C|)
!!section: Prima pars: Ave mater matris Dei
!!!OMD: Prima pars: Ave mater matris Dei
0r	1r	0E	1B	0r
.	1E	.	2B	.
.	.	.	[2e	.
=1	=1	=1	=1	=1
0r	1G	1E	2e]	0r
.	.	.	4d	.
.	.	.	4c	.
.	2.A	1F	1d	.
.	8GL	.	.	.
.	8AJ	.	.	.
=2	=2	=2	=2	=2
1E	1B	0G	0e	1B
1G	1E	.	.	2B
.	.	.	.	[2e
=3	=3	=3	=3	=3
1.A	0r	0F	0r	2e]
.	.	.	.	4d
.	.	.	.	4c
.	.	.	.	1d
4G	.	.	.	.
4A	.	.	.	.
=4	=4	=4	=4	=4
1B	2r	0E	2E	0e
.	1E	.	2E	.
1E	.	.	[1A	.
.	2AA	.	.	.
=5	=5	=5	=5	=5
0r	2C	1r	2A]	0r
.	2D	.	4G#i	.
.	.	.	4F#i	.
.	1BB	1B	1G#i	.
=6	=6	=6	=6	=6
2r	0AA	0c	0A	1E
1E	.	.	.	.
.	.	.	.	2E
2AA	.	.	.	[2A
=7	=7	=7	=7	=7
2C	0r	1A	0r	2A]
2D	.	.	.	4G
.	.	.	.	4F
1BB	.	1B	.	1G
=8	=8	=8	=8	=8
0AA	2r	[0c	2r	0A
.	2AA	.	2.A	.
.	2.A	.	.	.
.	.	.	4B	.
.	.	.	2c	.
.	4G	.	.	.
=9	=9	=9	=9	=9
2r	2F	1c]	2A	1r
2AA	2E	.	1c	.
2.A	2.F	1A	.	2r
.	.	.	[2F	[2A
4G	4E	.	.	.
=10	=10	=10	=10	=10
2F	2D	0A	4F]	4A]
.	.	.	4G	4B
2E	2C	.	1A	2c
2.F	1D	.	.	2A
.	.	.	2F	[2d
4E	.	.	.	.
=11	=11	=11	=11	=11
[0D	1GG	1B	2G	2d]
.	.	.	2.d	1G
.	1D	1A	.	.
.	.	.	4c	.
.	.	.	2A	2F
=12	=12	=12	=12	=12
1D]	1GG	1G	1B	2G
.	.	.	.	1d
1AA	1r	1E	1A	.
.	.	.	.	2c#i
=13	=13	=13	=13	=13
1r	2r	0F	2r	2.d
.	2.D	.	2.f	.
.	.	.	.	4c
2r	.	.	.	1A
.	4C	.	4e	.
[2A	4D	.	4f	.
.	4C	.	4e	.
=14	=14	=14	=14	=14
4A]	0AA	[0E	2c	2r
4G	.	.	.	.
4A	.	.	2.e	2.c
4G	.	.	.	.
2E	.	.	.	.
.	.	.	4d	4B
2AA	.	.	4e	4c
.	.	.	4d	4B
=15	=15	=15	=15	=15
2E	2r	0E_	2B	2G
2AA	2.C	.	2c	2.e
1r	.	.	1r	.
.	4BB	.	.	4d
.	4C	.	.	4e
.	4BB	.	.	4d
=16	=16	=16	=16	=16
2r	2GG	0E]	2r	2B
1A	2AA	.	2.e	2c
.	1E	.	.	1B
.	.	.	4d	.
2G	.	.	2B	.
=17	=17	=17	=17	=17
2.A	2.AA	0r	2c	2A
.	.	.	1e	1c
4G	4BB	.	.	.
2E	2C	.	.	.
[2F	2D	.	2d	[2B
=18	=18	=18	=18	=18
4F]	2AA	0r	2c	4B]
4E	.	.	.	4A
1E	2C	.	4B	1A
.	.	.	4A	.
.	1BB	.	1d	.
2D	.	.	.	2G#i
=19	=19	=19	=19	=19
0E	1AA	0r	2c	1A
.	.	.	2A	.
.	2E	.	2G	2r
.	2AA	.	2A	2A
=20	=20	=20	=20	=20
1r	2r	[0e	2E	2G
.	2A	.	2.e	2A
2r	2G	.	.	2E
.	.	.	4d	.
2A	2A	.	2c	[2e
=21	=21	=21	=21	=21
2G	2E	1e]	2B	4e]
.	.	.	.	4d
2A	2A	.	2A	4c
.	.	.	.	4B
2AA	4A	1c	1r	1A
.	4G	.	.	.
[2A	4F	.	.	.
.	4E	.	.	.
=22	=22	=22	=22	=22
4A]	1D	1.d	2.A	1r
4G	.	.	.	.
4F	.	.	.	.
4E	.	.	4G	.
2D	1r	.	2F	2r
2C	.	2e	2E	2A
=23	=23	=23	=23	=23
1D	1r	1.f	2D	4A
.	.	.	.	4G
.	.	.	1A	4F
.	.	.	.	4E
1BB	2r	.	.	1D
.	2G	4e	2G	.
.	.	4d	.	.
=24	=24	=24	=24	=24
1AA	2.A	0c	2.c	1E
.	4G	.	4B	.
1r	2F	.	2A	1r
.	2E	.	2G	.
=25	=25	=25	=25	=25
1r	2D	1d	4F	1r
.	.	.	4G	.
.	2D	.	4A	.
.	.	.	4F	.
2r	1C	1e	1G	2r
2G	.	.	.	2G
=26	=26	=26	=26	=26
2.A	0r	[0f	0r	2.c
4G	.	.	.	4B
2F	.	.	.	2A
2E	.	.	.	2G
=27	=27	=27	=27	=27
2D	1r	1f]	2r	4F
.	.	.	.	4G
2D	.	.	2F	4A
.	.	.	.	4F
[1C	2r	1e	2.c	1G
.	2G	.	.	.
.	.	.	4B	.
=28	=28	=28	=28	=28
0C]	2.c	1.e	2A	2r
.	.	.	2G	2G
.	4B	.	.	.
.	2A	.	1r	2.c
.	2G	4d	.	.
.	.	4c	.	4B
=29	=29	=29	=29	=29
2r	2F	2d	2r	2A
2C	2E	1e	2c	2G
1D	1F	.	2A	4F
.	.	.	.	4G
.	.	2d	[2d	4A
.	.	.	.	4F
=30	=30	=30	=30	=30
4AA	1E	0e	4d]	1A
4BB	.	.	4c	.
4C	.	.	2c	.
4D	.	.	.	.
2E	1r	.	2B	2G
2AA	.	.	2A	2E
=31	=31	=31	=31	=31
2.E	4AA	1r	2.c	2r
.	4BB	.	.	.
.	4C	.	.	2c
4F	4D	.	4B	.
2G	2E	1e	2G	2B
2A	2AA	.	[2e	2A
=32	=32	=32	=32	=32
1AA	2.E	1e	2e]	2.c
.	.	.	4d	.
.	4F	.	4c	4B
2BB	2G	2d	2B	2G
2AA	2A	[2c	2c	[2e
=33	=33	=33	=33	=33
2C	2r	2c]	2e	2e]
2D	2D	2B	2f	4d
.	.	.	.	4c
1E	2G	1G	2.e	1B
.	2E	.	.	.
.	.	.	4d	.
=34	=34	=34	=34	=34
2r	1F	0A	2c	1A
2.AA	.	.	2A	.
.	1E	.	1c	2r
4BB	.	.	.	.
4C	.	.	.	[2E
4D	.	.	.	.
=35	=35	=35	=35	=35
2.E	0r	0G	1B	4E]
.	.	.	.	4F
.	.	.	.	4G
4F	.	.	.	4A
4G	.	.	1r	4B
4F	.	.	.	4A
[2G	.	.	.	[2B
=36	=36	=36	=36	=36
2G]	0r	0B	0r	4B]
.	.	.	.	4A
4F	.	.	.	1G
4E	.	.	.	.
1D	.	.	.	.
.	.	.	.	2F
=37	=37	=37	=37	=37
1C	2r	0c	1r	2G
.	2.AA	.	.	2E
1r	.	.	2r	1E
.	4BB	.	.	.
.	4C	.	[2E	.
.	4D	.	.	.
=38	=38	=38	=38	=38
0r	2.E	0B	4E]	0r
.	.	.	4F	.
.	.	.	4G	.
.	4F	.	4A	.
.	4G	.	4B	.
.	4F	.	4A	.
.	[2G	.	[2B	.
=39	=39	=39	=39	=39
1r	2G]	0d	4B]	2r
.	.	.	4A	.
.	4F	.	1G	2G
.	4E	.	.	.
2r	1D	.	.	2A
2F	.	.	2F	2B
=40	=40	=40	=40	=40
2G	1C	1r	2r	2c
4F	.	.	2G	1G
4E	.	.	.	.
1D	1r	1d	2A	.
.	.	.	2B	2F
=41	=41	=41	=41	=41
2C	2.C	1e	2c	1G
1E	.	.	1G	.
.	4BB	.	.	.
.	1AA	1c	.	1r
4D	.	.	2F#i	.
4C	.	.	.	.
=42	=42	=42	=42	=42
2D	2GG	0B	0G	2.d
2GG	2.G	.	.	.
.	.	.	.	4c
2.G	.	.	.	4B
.	4F	.	.	4A
.	4E	.	.	[2G
4F	4D	.	.	.
=43	=43	=43	=43	=43
4E	2.C	1c	1r	2G]
4D	.	.	.	.
2C	.	.	.	2A
.	4BB	.	.	.
2r	2.GG	[1d	2.d	2.B
[2G	.	.	.	.
.	4AA	.	4c	4c
=44	=44	=44	=44	=44
2G]	2BB	2d]	4B	2d
.	.	.	4A	.
2E	2C	2c	1G	2e
2F	1D	2B	.	[1d
2D	.	2A	2F	.
=45	=45	=45	=45	=45
1D	2.GG	0B	2.G	2d]
.	.	.	.	2.G
.	4AA	.	4F	.
1r	2BB	.	1D	.
.	.	.	.	4A
.	2GG	.	.	2B
=46	=46	=46	=46	=46
2.C	[0C	0c	1r	2G
.	.	.	.	2.c
4D	.	.	.	.
2E	.	.	2.C	.
.	.	.	.	4d
2C	.	.	.	2e
.	.	.	4D	.
=47	=47	=47	=47	=47
2.G	1C]	2.c	2E	2c
.	.	.	2C	2e
4F	.	4B	.	.
2D	1r	2A	2F	2d
[2G	.	2G	2G	2B
=48	=48	=48	=48	=48
2G]	2.C	0G	2.E	2c
2.E	.	.	.	1.e
.	4D	.	4F	.
.	2E	.	2G	.
4F	.	.	.	.
2G	2C	.	2E	.
=49	=49	=49	=49	=49
2.D	2.F	0A	2A	2d
.	.	.	2r	2.D
4E	4G	.	.	.
2F	2A	.	2.D	.
.	.	.	.	4E
2D	2F	.	.	2F
.	.	.	4E	.
=50	=50	=50	=50	=50
2r	2r	0F	2F	2D
1.D	2.D	.	2D	1.d
.	.	.	1A	.
.	4E	.	.	.
.	2F	.	.	.
=51	=51	=51	=51	=51
2GG	2D	0G	2B	2B
2.C	2.E	.	2.c	2.e
4D	4F	.	4B	4d
2E	2G	.	2G	2B
=52	=52	=52	=52	=52
2C	2E	1A	2c	2e
2D	2F	.	2A	2.d
2GG	2D	1G	2B	.
.	.	.	.	4B
2C	2C	.	2c	2e
=53	=53	=53	=53	=53
2r	2r	1.c	2r	2r
2.C	2.E	.	2.c	2.e
4D	4F	.	4B	4d
2E	2G	2B	2G	2B
=54	=54	=54	=54	=54
2C	2E	1A	2c	2e
2D	2F	.	2A	2.d
2GG	2D	1G	2B	.
.	.	.	.	4B
2C	2C	.	2c	[2e
=55	=55	=55	=55	=55
0D	2r	0F	0A	2e]
.	2.F	.	.	4d
.	.	.	.	4c
.	.	.	.	1d
.	4G	.	.	.
.	2A	.	.	.
=56	=56	=56	=56	=56
2r	2AA	[0El	2r	[0el
2.AA	2.C	.	2.c	.
4BB	4D	.	4B	.
2C	[2E	.	2G	.
=57	=57	=57	=57	=57
2.AA	2E]	0E_	2c	0e_
.	1AA	.	2.A	.
4BB	.	.	.	.
2C	.	.	.	.
.	.	.	4B	.
2AA	[2A	.	4c	.
.	.	.	4A	.
=58	=58	=58	=58	=58
[0El	2A]	0E_	[0Bl	0e_
.	4G	.	.	.
.	4F	.	.	.
.	1G	.	.	.
=59	=59	=59	=59	=59
00E]	00Gl	00E]	00B]	00e]
==	==	==	==	==
*-	*-	*-	*-	*-
!!!system-decoration: [*]
!!!RDF**kern: i = editorial accidental
!!!RDF**kern: l = terminal long
!!!ENC: Benjamin Ory
!!!END: 2021/1/19
!!!EED: Benjamin Ory
!!!EEV: 2021/05/17
!!!YEC: Copyright 2021 Benjamin Ory, All Rights Reserved
!!!ONB: Translated from MusicXML on 2021/05/17